!! 00000] TT[00
!! NN
!!!OTL: Tu er hu te jiaxiang
!!!ARE: Xinjiang, Bayngele (Osten-i.d.N„he v.Menggu)
!! Ethnic Group: Menggu
!! IV, 406
!!!SCT: C0439
!!!YEM: Copyright 1995, estate of Helmut Schaffrath.
**kern
*ICvox
*Ivox
*M4/4
*k[b-e-a-d-]
*A-:
{4ee-
8ee-
8ff
4a-
8.a-
16f
=1
8.e-
16a-
8f
8e-
4.ee-
8cc}
=2
{4ee-
8ee-
8b-
4ee-
8ff
8aa-
=3
8.ee-
16ff
8ee-
8f
2a-}
=4
{4e-
8e-
8f
4a-
8a-
8a-
=5
8f
8a-
8cc
8cc
8b-
8cc
4ee-}
=6
{4a-
8b-
8cc
8a-
16b-
16cc
8a-
8f
=7
8e-
16e-
16f
8e-
8c
2e-}
==
!!!AGN: Duan ge. Zanmei jiaxiang
!! Neuer Text, alte Melodie. Typisch fuer die Volkslieder der Neimeng
!!    in Xingjiang, die in der Ming-Dynastie dorthin auswanderten und viel
!!    mehr den Neimeng Charakter erhalten haben als die der inneren
!!    Neimeng
!!    Vereinzelt Verzierungen. Vorspiel weggelassen.
!!!ONB: ESAC (Essen Associative Code) Database: CHINA
!!!AMT: simple quadruple
!!!AIN: vox
!!!EED: Helmut Schaffrath
!!!EEV: 1.0
*-
